X:844
T:Whiskey for Breakfast
T:Whiskey before Breakfast
R:reel
O:American
Z:id:hn-reel-844
M:C|
L:1/8
K:D
D2F2 A4 | ABAF EDEF | G2BG F2AF | EDEF EDB,A, | 
D2F2 A4 | ABAF EDEF | G2BG F2AF | EDEF D4 :|
|: DFAc d2Ac | dBAF E2D2 | e4 e2ef | gfed cABc |
d2fd c2ec | BABc BAFD | G2BG F2AF | EDEF D4 :|

